X:1
T:Title
%%score { 1 | 2 }
L:1/8
M:3/4
K:Ab
V:1 treble nm="Grand Piano"
V:2 bass 
V:1
 z2 z[Q:1/4=100] [Ec] [DB][CA] | [CE]3 [EF] [DA]>[DG] | [DG]4 [EA]2 | [FB]3 F G>E |[M:3/8] [CA]3 | %5
 [Ec][DB][CA] |[M:3/4] [CE]3 [EF] [DA]>[DG] | [DG]4 [Fd]2 | c3 B FG |[M:3/8] [CA]3 | %10
 [Ec][=Ec][GB] |[M:3/4] [FA]3 [=EG] [FA][FB] | [=Ec]4 [EG]2 | [FA]3 [FA] [FB][F_c] | %14
[M:3/8] [=Ec]3 | [Ed][Ec][DB] |[M:3/4] [CA]3 [=EG] [FB][FA] | [DF]4 [FA]2 | E3 A B>[CA] | %19
[M:2/4] [CA]4 |] %20
V:2
 z2 z [A,,A,] [A,,A,][A,,E,] | [A,,A,]3 [C,A,] [B,,E,]>[B,,E,] | [B,,E,]4 [C,A,]2 | %3
 [D,A,]3 [D,B,] [E,B,D]>[E,G,D] |[M:3/8] [A,,A,]3 | [A,,A,][A,,A,][A,,E,] | %6
[M:3/4] [A,,A,]3 [C,A,] [B,,E,]>[B,,E,] | [B,,E,]4 [E,G,]2 | [E,G,E]3 [E,G,D] [E,B,D][E,D] | %9
[M:3/8] [A,,E,]3 | [A,,A,][C,G,][=E,C] |[M:3/4] [F,C]3 [C,C] [F,C][D,F,] | [C,G,]4 [C,C]2 | %13
 [F,C]3 [F,C] [D,B,][D,G,] |[M:3/8] [C,G,]3 | [B,,G,][A,,A,][A,,E,] | %16
[M:3/4] [A,,E,]3 [C,B,] [D,A,][D,A,] | [D,A,]4 [=D,_C]2 | [E,C]3 [E,A,C] [E,G,D]>[A,,A,] | %19
[M:2/4] [A,,A,]4 |] %20

